images/logos/trainline.svg

<svg height="24" viewBox="0 0 111 24" width="111" xmlns="http://www.w3.org/2000/svg"><path d="m163.849762 41.8867925c-.075459-1.5849057-1.056424-3.0943397-3.546567-3.0943397-2.188307 0-3.395649 1.6603774-3.546567 3.0943397zm3.99932 5.1320754c-.830047 2.7169812-3.32019 4.9811321-7.168593 4.9811321-4.301155 0-8.149558-3.0943396-8.149558-8.3773585 0-4.9811321 3.697485-8.3018868 7.696805-8.3018868 4.829368 0 7.772264 3.0943396 7.772264 8.1509434 0 .6037736-.075459 1.2830189-.075459 1.2830189h-11.243372c.075459 2.1132075 1.886472 3.5471698 3.923862 3.5471698 1.96193 0 3.093813-.9811321 3.546567-2.4150943zm-27.39157-4.5283019c0-1.8113207 1.056424-3.245283 2.942896-3.245283 2.037389 0 2.942896 1.3584906 2.942896 3.0943396v9.1320755h4.225697v-9.8867924c0-3.4716982-1.811013-6.264151-5.659416-6.264151-1.660095 0-3.546567.754717-4.527532 2.3396227v-1.9622642h-4.150238v15.6981132h4.225697zm-11.092454-6.7169811h4.225697v15.6981132h-4.225697zm2.112848-7.7735849c1.433719 0 2.641061 1.2075472 2.641061 2.6415094 0 1.4339623-1.131883 2.5660378-2.641061 2.5660378-1.433718 0-2.64106-1.2075472-2.64106-2.5660378 0-1.4339622 1.207342-2.6415094 2.64106-2.6415094zm-23.618627 14.490566c0-1.8113207 1.056425-3.245283 2.942896-3.245283 2.03739 0 2.942896 1.3584906 2.942896 3.0943396v9.1320755h4.225697v-9.8867924c0-3.4716982-1.811013-6.264151-5.659415-6.264151-1.660095 0-3.546567.754717-4.527532 2.3396227v-1.9622642h-4.150238v15.6981132h4.225696zm-11.2433715-6.7169811h4.2256965v15.6981132h-4.2256965zm2.0373896-7.7735849c1.4337189 0 2.6410609 1.2075472 2.6410609 2.6415094 0 1.4339623-1.131883 2.5660378-2.6410609 2.5660378-1.4337186 0-2.6410605-1.2075472-2.6410605-2.5660378.0754588-1.4339622 1.2073419-2.6415094 2.6410605-2.6415094zm-12.0734195 20.8301887c-1.3582597 0-2.0373895-.9056604-2.0373895-1.8113208 0-1.2075471.8300476-1.8113207 1.9619307-1.9622641l3.5465669-.5283019v.6792453c0 2.7169811-1.6600951 3.6226415-3.4711081 3.6226415zm-6.2630863-1.5849057c0 2.4905661 2.0373895 4.754717 5.4330387 4.754717 2.3392251 0 3.8484025-1.0566038 4.6029912-2.3396226 0 .6037735.0754589 1.4339622.1509178 1.8867924h3.9238613c-.0754589-.5283019-.2263766-1.6603773-.2263766-2.490566v-7.7735849c0-3.1698114-1.8864718-5.9622642-6.8667574-5.9622642-4.2256968 0-6.4894629 2.7169811-6.7158395 5.2075472l3.7729436.8301887c.1509177-1.3584906 1.131883-2.5660378 3.0183548-2.5660378 1.8110129 0 2.6410605.9056604 2.6410605 2.0377359 0 .5283019-.3018355.9811321-1.2073419 1.1320755l-3.8484025.6037735c-2.6410605.3018868-4.67845 1.8867925-4.67845 4.6792453zm-1.2828008-7.245283c-.4527532-.0754717-.9055065-.1509434-1.2828008-.1509434-2.1883073 0-4.0747791 1.0566038-4.0747791 4.4528302v7.1698113h-4.2256968v-15.6981132h4.1502379v2.3396226c.9809654-2.1132075 3.0938138-2.490566 4.4520735-2.490566.3772943 0 .6791298 0 .9809653.0754717zm-11.9225017-4v3.6981132h-4.9048267c.4527533-.2264151.8300476-.6037736 1.207342-.9056604.7545887-.754717 1.2828008-1.6603773 1.6600952-2.7924528zm-8.9041469 3.6981132h-1.2073419v-3.6981132h6.8667573c-.4527532 1.1320755-1.1318831 2.0377358-2.1128484 2.7169811-.9055065.6037736-2.1128484.9056604-3.546567.9811321zm7.6213461 8.3018868c.5282121 0 1.0564242-.0754717 1.2828008-.1509434v3.5471698c-.3772944.1509434-1.1318831.3773585-2.339225.3773585-3.0183549 0-4.9048267-1.8113207-4.9048267-4.8301887v-6.2641509h4.150238v5.5849056c0 1.2830189.6036709 1.7358491 1.8110129 1.7358491zm-1.8110129-12.9811321v-3.6981132h-3.7729436v2.1886793c0 .6037735-.1509178 1.1320754-.4527533 1.5094339zm63.0081579 12.9811321h-.754589c-1.207342 0-1.811013-.4528302-1.811013-1.8113208v-17.5094339h-4.150238v18.2641509c0 3.018868 1.886472 4.8301887 4.904827 4.8301887.754589 0 1.35826-.0754717 1.811013-.2264151z" transform="translate(-57 -28)"/></svg>

<?xml version="1.0" encoding="UTF-8"?>
<svg width="111px" height="24px" viewBox="0 0 111 24" version="1.1" xmlns="http://www.w3.org/2000/svg" xmlns:xlink="http://www.w3.org/1999/xlink">
    <!-- Generator: Sketch 50.2 (55047) - http://www.bohemiancoding.com/sketch -->
    <title>Trainline</title>
    <desc>Created with Sketch.</desc>
    <defs></defs>
    <g id="Desktop" stroke="none" stroke-width="1" fill="none" fill-rule="evenodd">
        <g id="Work" transform="translate(-1033.000000, -2300.000000)" fill="#000000" fill-rule="nonzero">
            <g id="Clients" transform="translate(80.000000, 1824.000000)">
                <g id="logos" transform="translate(128.000000, 448.000000)">
                    <g id="4" transform="translate(768.000000, 0.000000)">
                        <path d="M163.849762,41.8867925 C163.774303,40.3018868 162.793338,38.7924528 160.303195,38.7924528 C158.114888,38.7924528 156.907546,40.4528302 156.756628,41.8867925 L163.849762,41.8867925 Z M167.849082,47.0188679 C167.019035,49.7358491 164.528892,52 160.680489,52 C156.379334,52 152.530931,48.9056604 152.530931,43.6226415 C152.530931,38.6415094 156.228416,35.3207547 160.227736,35.3207547 C165.057104,35.3207547 168,38.4150943 168,43.4716981 C168,44.0754717 167.924541,44.754717 167.924541,44.754717 L156.681169,44.754717 C156.756628,46.8679245 158.567641,48.3018868 160.605031,48.3018868 C162.566961,48.3018868 163.698844,47.3207547 164.151598,45.8867925 L167.849082,47.0188679 Z M140.457512,42.490566 C140.457512,40.6792453 141.513936,39.245283 143.400408,39.245283 C145.437797,39.245283 146.343304,40.6037736 146.343304,42.3396226 L146.343304,51.4716981 L150.569001,51.4716981 L150.569001,41.5849057 C150.569001,38.1132075 148.757988,35.3207547 144.909585,35.3207547 C143.24949,35.3207547 141.363018,36.0754717 140.382053,37.6603774 L140.382053,35.6981132 L136.231815,35.6981132 L136.231815,51.3962264 L140.457512,51.3962264 L140.457512,42.490566 Z M129.365058,35.7735849 L133.590755,35.7735849 L133.590755,51.4716981 L129.365058,51.4716981 L129.365058,35.7735849 Z M131.477906,28 C132.911625,28 134.118967,29.2075472 134.118967,30.6415094 C134.118967,32.0754717 132.987084,33.2075472 131.477906,33.2075472 C130.044188,33.2075472 128.836846,32 128.836846,30.6415094 C128.836846,29.2075472 130.044188,28 131.477906,28 Z M107.859279,42.490566 C107.859279,40.6792453 108.915704,39.245283 110.802175,39.245283 C112.839565,39.245283 113.745071,40.6037736 113.745071,42.3396226 L113.745071,51.4716981 L117.970768,51.4716981 L117.970768,41.5849057 C117.970768,38.1132075 116.159755,35.3207547 112.311353,35.3207547 C110.651258,35.3207547 108.764786,36.0754717 107.783821,37.6603774 L107.783821,35.6981132 L103.633583,35.6981132 L103.633583,51.3962264 L107.859279,51.3962264 L107.859279,42.490566 Z M96.6159075,35.7735849 L100.841604,35.7735849 L100.841604,51.4716981 L96.6159075,51.4716981 L96.6159075,35.7735849 Z M98.6532971,28 C100.087016,28 101.294358,29.2075472 101.294358,30.6415094 C101.294358,32.0754717 100.162475,33.2075472 98.6532971,33.2075472 C97.2195785,33.2075472 96.0122366,32 96.0122366,30.6415094 C96.0876954,29.2075472 97.2195785,28 98.6532971,28 Z M86.5798776,48.8301887 C85.2216179,48.8301887 84.5424881,47.9245283 84.5424881,47.0188679 C84.5424881,45.8113208 85.3725357,45.2075472 86.5044188,45.0566038 L90.0509857,44.5283019 L90.0509857,45.2075472 C90.0509857,47.9245283 88.3908906,48.8301887 86.5798776,48.8301887 Z M80.3167913,47.245283 C80.3167913,49.7358491 82.3541808,52 85.74983,52 C88.0890551,52 89.5982325,50.9433962 90.3528212,49.6603774 C90.3528212,50.2641509 90.4282801,51.0943396 90.503739,51.5471698 L94.4276003,51.5471698 C94.3521414,51.0188679 94.2012237,49.8867925 94.2012237,49.0566038 L94.2012237,41.2830189 C94.2012237,38.1132075 92.3147519,35.3207547 87.3344663,35.3207547 C83.1087695,35.3207547 80.8450034,38.0377358 80.6186268,40.5283019 L84.3915704,41.3584906 C84.5424881,40 85.5234534,38.7924528 87.4099252,38.7924528 C89.2209381,38.7924528 90.0509857,39.6981132 90.0509857,40.8301887 C90.0509857,41.3584906 89.7491502,41.8113208 88.8436438,41.9622642 L84.9952413,42.5660377 C82.3541808,42.8679245 80.3167913,44.4528302 80.3167913,47.245283 Z M79.0339905,40 C78.5812373,39.9245283 78.128484,39.8490566 77.7511897,39.8490566 C75.5628824,39.8490566 73.6764106,40.9056604 73.6764106,44.3018868 L73.6764106,51.4716981 L69.4507138,51.4716981 L69.4507138,35.7735849 L73.6009517,35.7735849 L73.6009517,38.1132075 C74.5819171,36 76.6947655,35.6226415 78.0530252,35.6226415 C78.4303195,35.6226415 78.732155,35.6226415 79.0339905,35.6981132 L79.0339905,40 Z M67.1114888,36 L67.1114888,39.6981132 L62.2066621,39.6981132 C62.6594154,39.4716981 63.0367097,39.0943396 63.4140041,38.7924528 C64.1685928,38.0377358 64.6968049,37.1320755 65.0740993,36 L67.1114888,36 Z M58.2073419,39.6981132 L57,39.6981132 L57,36 L63.8667573,36 C63.4140041,37.1320755 62.7348742,38.0377358 61.7539089,38.7169811 C60.8484024,39.3207547 59.6410605,39.6226415 58.2073419,39.6981132 Z M65.828688,48 C66.3569001,48 66.8851122,47.9245283 67.1114888,47.8490566 L67.1114888,51.3962264 C66.7341944,51.5471698 65.9796057,51.7735849 64.7722638,51.7735849 C61.7539089,51.7735849 59.8674371,49.9622642 59.8674371,46.9433962 L59.8674371,40.6792453 L64.0176751,40.6792453 L64.0176751,46.2641509 C64.0176751,47.5471698 64.621346,48 65.828688,48 Z M64.0176751,35.0188679 L64.0176751,31.3207547 L60.2447315,31.3207547 L60.2447315,33.509434 C60.2447315,34.1132075 60.0938137,34.6415094 59.7919782,35.0188679 L64.0176751,35.0188679 Z M127.025833,48 L126.271244,48 C125.063902,48 124.460231,47.5471698 124.460231,46.1886792 L124.460231,28.6792453 L120.309993,28.6792453 L120.309993,46.9433962 C120.309993,49.9622642 122.196465,51.7735849 125.21482,51.7735849 C125.969409,51.7735849 126.57308,51.6981132 127.025833,51.5471698 L127.025833,48 Z" id="Trainline"></path>
                    </g>
                </g>
            </g>
        </g>
    </g>
</svg>
